!!!COM: Henri Reber
!!!CNT: Francais
!!!TXO: Francais
!!!OTL: Madeline
!!!LYR: Victor Hugo
!!!ODT: 1849/
!!!ENC: Jacob Pegg
!!!YOR: Romantic French Song 1830-1870, David Tunley, ed., New York: Garland Publishing, Inc., 1995, vol. 3
!!NB: Vocal melody and text only encoded.
!!NB: First instance of melodic material only encoded.
**kern	**silbe
*clef G2	*
*k[]	*
*M3/8	*
=5	=5
{8g	{E-
8cc	-cou-
8b	-te
=6	=6
4.cc	moi,
=7	=7
(8g	Ma-
8cc)	|
8b	-de-
=8	=8
4cc	-lei-
8b}	-ne,}
=9	=9
{8a	{L'hi-
4a	-ver
=10	=10
4a	a
8a	quit-
=11	=11
(8cc	-te/
8a)	|
8b	la
=12	=12
8g	plai-
8e}	-ne}
{8g	{Qu'hi-
=13	=13
4cc	-er
8cc	il
=14	=14
8cc	gla-
8b	-c5ait
8cc	en-
=15	=15
[4.dd	-cor.
=16	=16
4.dd]}	|}
=17	=17
{8ee	{Viens
8dd	dans
8cc	ces
=18	=18
8a	bois
8b	d'ou\
8f#	ma
=19	=19
(4g	sui-
8b)	|
=20	=20
8d}	-te}
{8b	{Se
8ee	re-
=21	=21
4dd	-tire,
!!8r remarked out to correct timing
8cc	au
=22	=22
(8a	loin
8b)	|
8f#	con-
=23	=23
4g	-dui-
8g}	-te}
=24	=24
{4a	{Par
8b	les
=25	=25
4cc	sons
8cc	er-
=26	=26
(8ee	-rants
8cc)	|
8dd	du
=27	=27
[4.cc	cor!
=28	=28
8cc]}	|}
8r	.
8r	.
*-	*-
